icons/lines/airpod.svg

<svg xmlns="http://www.w3.org/2000/svg" width="24" height="24" viewBox="0 0 24 24" fill="none" stroke="currentColor" stroke-width="2" stroke-linecap="round" stroke-linejoin="round" >
  <path d="M2.62012 15.75V8.25C2.62012 7.48 2.65012 6.79 2.73012 6.18C3.10012 2.89 4.65012 2 8.88012 2H15.1301C19.3501 2 20.9101 2.89 21.2701 6.18C21.3601 6.79 21.3801 7.48 21.3801 8.25V15.75C21.3801 16.52 21.3501 17.21 21.2701 17.83C20.9001 21.11 19.3501 22 15.1201 22H8.88012C4.66012 22 3.10012 21.11 2.74012 17.83C2.65012 17.21 2.62012 16.52 2.62012 15.75Z"/>
  <path d="M21.2299 8.92004H17.1299"/>
  <path d="M6.86953 8.92004H2.76953"/>
  <path d="M17.1301 8.92C17.1301 10.05 16.2101 10.97 15.0801 10.97H8.92012C8.36012 10.97 7.84012 10.74 7.47012 10.36C7.10012 9.99999 6.87012 9.49 6.87012 8.92C6.87012 7.79 7.79012 6.87 8.92012 6.87H15.0701C15.6301 6.87 16.1501 7.1 16.5201 7.48C16.9001 7.85 17.1301 8.36 17.1301 8.92Z"/>
  </svg>

<svg xmlns="http://www.w3.org/2000/svg" width="24" height="24" viewBox="0 0 24 24" fill="none" stroke="currentColor" stroke-width="2" stroke-linecap="round" stroke-linejoin="round">
  <path d="M2.62 8.25a16 16 0 0 1 .11-2.07C3.1 2.89 4.65 2 8.88 2h6.25c4.22 0 5.78.89 6.14 4.18.09.61.11 1.3.11 2.07v7.5a16 16 0 0 1-.11 2.08C20.9 21.11 19.35 22 15.12 22H8.88c-4.22 0-5.78-.89-6.14-4.17-.09-.62-.12-1.31-.12-2.08z" />
  <path d="M21.23 8.92h-4.1" />
  <path d="M6.87 8.92h-4.1" />
  <rect x="6.869" y="6.869" width="10.261" height="4.102" rx="2" />
</svg>
